static/files/dsdtree/Azure Data Lake Analytics.svg

<?xml version="1.0" encoding="UTF-8"?>
<!-- Created with Inkscape (http://www.inkscape.org/) -->
<svg width="100" height="100" version="1.1" viewBox="0 0 26.458 26.458" xmlns="http://www.w3.org/2000/svg" xmlns:cc="http://creativecommons.org/ns#" xmlns:dc="http://purl.org/dc/elements/1.1/" xmlns:rdf="http://www.w3.org/1999/02/22-rdf-syntax-ns#" xmlns:v="http://schemas.microsoft.com/visio/2003/SVGExtensions/">
 <metadata>
  <rdf:RDF>
   <cc:Work rdf:about="">
    <dc:format>image/svg+xml</dc:format>
    <dc:type rdf:resource="http://purl.org/dc/dcmitype/StillImage"/>
    <dc:title/>
   </cc:Work>
  </rdf:RDF>
 </metadata>
 <g transform="translate(0 -270.54)">
  <g transform="matrix(.32493 0 0 .32493 2.4866 273.03)" fill="#2165b6" v:groupContext="foregroundPage" v:index="1" v:mID="0">
   <title>Page-1</title>
   <v:pageProperties v:drawingScale="1" v:drawingUnits="19" v:pageScale="1" v:shadowOffsetX="2.83465" v:shadowOffsetY="-2.83465" v:shadowType="1"/>
   <g transform="translate(.75 -.75)" fill="#2165b6" v:groupContext="shape" v:mID="1437">
    <title>Data Lake Analytics (nc)</title>
    <path class="st1" d="m26.55 2.06c-1.42-0.64-3.1-0.77-4.59-0.19-1.49 0.52-2.72 1.62-3.36 3.1l-0.84 1.75h-6.66c-3.23 0-5.88 2.65-5.88 5.88v21.41l-4.65 9.94c-0.65 1.42-0.78 3.1-0.2 4.58 0.52 1.49 1.62 2.72 3.1 3.36l1.75 0.85v2.19c0 3.23 2.65 5.88 5.88 5.88h21.27l10.08 4.72c0.77 0.39 1.68 0.58 2.52 0.58 0.71 0 1.36-0.13 2.07-0.38 1.48-0.52 2.71-1.62 3.36-3.11l0.87-1.81h2.16c3.24 0 5.89-2.65 5.89-5.88v-16.75l4.71-10.07c0.72-1.49 0.78-3.1 0.2-4.65-0.52-1.49-1.62-2.72-3.1-3.36l-1.81-0.88v-6.62c0-3.23-2.65-5.88-5.89-5.88h-16.95zm15.06 27.67h-8.21l3.42-11.44c0.07-0.33-0.06-0.65-0.32-0.78-0.06-0.06-0.19-0.06-0.26-0.06-0.19 0-0.39 0.12-0.51 0.25l-13.25 19.33c-0.13 0.19-0.13 0.45-0.07 0.65 0.13 0.19 0.32 0.32 0.58 0.32h7.95l-3.55 11.63c-0.07 0.33 0.06 0.65 0.32 0.78 0.07 0.06 0.2 0.06 0.26 0.06 0.19 0 0.39-0.13 0.52-0.26l13.63-19.51c0.07-0.13 0.13-0.26 0.13-0.39 0-0.33-0.32-0.58-0.64-0.58zm-30.51-19.14h42.33c1.04 0 1.94 0.84 1.94 1.94v42.34c0 1.03-0.84 1.94-1.94 1.94h-42.33c-1.03 0-1.94-0.84-1.94-1.94v-42.34c0-1.03 0.84-1.94 1.94-1.94z" fill="#2165b6"/>
   </g>
  </g>
 </g>
</svg>

<?xml version="1.0" encoding="UTF-8" standalone="no"?>
<!DOCTYPE svg PUBLIC "-//W3C//DTD SVG 1.1//EN" "http://www.w3.org/Graphics/SVG/1.1/DTD/svg11.dtd">
<!-- Generated by Microsoft Visio, SVG Export Data Lake Analytics.svg Page-1 -->
<svg xmlns="http://www.w3.org/2000/svg" xmlns:xlink="http://www.w3.org/1999/xlink" xmlns:ev="http://www.w3.org/2001/xml-events"
		xmlns:v="http://schemas.microsoft.com/visio/2003/SVGExtensions/" width="0.918352in" height="0.918252in"
		viewBox="0 0 66.1213 66.1142" xml:space="preserve" color-interpolation-filters="sRGB" class="st2">
	<v:documentProperties v:langID="1033" v:viewMarkup="false">
		<v:userDefs>
			<v:ud v:nameU="visTLShowProps" v:prompt="" v:val="VT0(0):26"/>
		</v:userDefs>
	</v:documentProperties>

	<style type="text/css">
	<![CDATA[
		.st1 {fill:#0078d7;stroke:none;stroke-linecap:butt;stroke-width:0.75}
		.st2 {fill:none;fill-rule:evenodd;font-size:12px;overflow:visible;stroke-linecap:square;stroke-miterlimit:3}
	]]>
	</style>

	<g v:mID="0" v:index="1" v:groupContext="foregroundPage">
		<title>Page-1</title>
		<v:pageProperties v:drawingScale="1" v:pageScale="1" v:drawingUnits="19" v:shadowOffsetX="2.83465"
				v:shadowOffsetY="-2.83465" v:shadowType="1"/>
		<g id="shape1437-1" v:mID="1437" v:groupContext="shape" transform="translate(0.75,-0.75)">
			<title>Data Lake Analytics (nc)</title>
			<path d="M26.55 2.06 C25.13 1.42 23.45 1.29 21.96 1.87 C20.47 2.39 19.24 3.49 18.6 4.97 L17.76 6.72 L11.1 6.72 C7.87
						 6.72 5.22 9.37 5.22 12.6 L5.22 34.01 L0.57 43.95 C-0.08 45.37 -0.21 47.05 0.37 48.53 C0.89 50.02 1.99 51.25
						 3.47 51.89 L5.22 52.74 L5.22 54.93 C5.22 58.16 7.87 60.81 11.1 60.81 L32.37 60.81 L42.45 65.53 C43.22 65.92
						 44.13 66.11 44.97 66.11 C45.68 66.11 46.33 65.98 47.04 65.73 C48.52 65.21 49.75 64.11 50.4 62.62 L51.27
						 60.81 L53.43 60.81 C56.67 60.81 59.32 58.16 59.32 54.93 L59.32 38.18 L64.03 28.11 C64.75 26.62 64.81 25.01
						 64.23 23.46 C63.71 21.97 62.61 20.74 61.13 20.1 L59.32 19.22 L59.32 12.6 C59.32 9.37 56.67 6.72 53.43 6.72
						 L36.48 6.72 L26.55 2.06 ZM41.61 29.73 L33.4 29.73 L36.82 18.29 C36.89 17.96 36.76 17.64 36.5 17.51 C36.44
						 17.45 36.31 17.45 36.24 17.45 C36.05 17.45 35.85 17.57 35.73 17.7 L22.48 37.03 C22.35 37.22 22.35 37.48
						 22.41 37.68 C22.54 37.87 22.73 38 22.99 38 L30.94 38 L27.39 49.63 C27.32 49.96 27.45 50.28 27.71 50.41 C27.78
						 50.47 27.91 50.47 27.97 50.47 C28.16 50.47 28.36 50.34 28.49 50.21 L42.12 30.7 C42.19 30.57 42.25 30.44
						 42.25 30.31 C42.25 29.98 41.93 29.73 41.61 29.73 ZM11.1 10.59 L53.43 10.59 C54.47 10.59 55.37 11.43 55.37
						 12.53 L55.37 54.87 C55.37 55.9 54.53 56.81 53.43 56.81 L11.1 56.81 C10.07 56.81 9.16 55.97 9.16 54.87 L9.16
						 12.53 C9.16 11.5 10 10.59 11.1 10.59 Z" class="st1"/>
		</g>
	</g>
</svg>
